apps/spreadsheeteditor/main/resources/img/toolbar/2.5x/btn-show-formulas.svg

<svg width="20" height="20" viewBox="0 0 20 20" fill="none" xmlns="http://www.w3.org/2000/svg">
<path d="M12.4032 9.0633L12.2649 9.55901H11.1437L10.299 12.8412C9.92521 14.2883 9.54891 15.4074 9.17005 16.1985C8.63247 17.3151 8.05394 18.0862 7.43445 18.5118C6.96343 18.8373 6.49241 19 6.02139 19C5.71421 19 5.4531 18.9099 5.23807 18.7296C5.07936 18.6044 5 18.4417 5 18.2414C5 18.0812 5.06656 17.941 5.19967 17.8208C5.32767 17.7057 5.48638 17.6481 5.67581 17.6481C5.81404 17.6481 5.9318 17.6906 6.02907 17.7758C6.12123 17.8609 6.16731 17.9585 6.16731 18.0687C6.16731 18.1788 6.11355 18.2815 6.00603 18.3766C5.92412 18.4467 5.88316 18.4993 5.88316 18.5343C5.88316 18.5794 5.90108 18.6144 5.93692 18.6395C5.983 18.6745 6.05467 18.6921 6.15195 18.6921C6.3721 18.6921 6.60505 18.6245 6.8508 18.4893C7.09142 18.3541 7.30645 18.1513 7.49589 17.8809C7.68532 17.6155 7.86451 17.23 8.03346 16.7242C8.10514 16.5139 8.29713 15.8205 8.60943 14.6438L9.94569 9.55901H8.60943L8.71695 9.0633C9.14189 9.0633 9.43884 9.03577 9.60779 8.98069C9.77674 8.9206 9.93033 8.81044 10.0686 8.65021C10.2119 8.48498 10.3962 8.17954 10.6215 7.73391C10.9236 7.13305 11.2128 6.66738 11.4893 6.33691C11.8682 5.89127 12.2649 5.5583 12.6796 5.33798C13.0995 5.11266 13.4937 5 13.8623 5C14.2514 5 14.5637 5.09764 14.7992 5.29292C15.0347 5.48319 15.1525 5.69099 15.1525 5.91631C15.1525 6.09156 15.0936 6.23927 14.9759 6.35944C14.8581 6.47961 14.7071 6.5397 14.5228 6.5397C14.3641 6.5397 14.2335 6.49464 14.1311 6.40451C14.0338 6.31438 13.9852 6.20672 13.9852 6.08155C13.9852 6.00143 14.0185 5.90379 14.085 5.78863C14.1516 5.66845 14.1849 5.58834 14.1849 5.54828C14.1849 5.47818 14.1618 5.42561 14.1157 5.39056C14.0492 5.34049 13.9519 5.31545 13.8239 5.31545C13.5014 5.31545 13.2121 5.41559 12.9561 5.61588C12.6131 5.88126 12.3059 6.29685 12.0346 6.86266C11.8963 7.15808 11.6429 7.89163 11.2743 9.0633H12.4032Z" fill="black"/>
<path d="M14.8453 8.88305C15.0962 9.14342 15.2856 9.40379 15.4136 9.66416C15.5058 9.84442 15.6568 10.3176 15.8667 11.0837L16.5425 10.0923C16.7217 9.85193 16.9393 9.62411 17.1953 9.4088C17.4513 9.18848 17.6765 9.03827 17.8711 8.95815C17.994 8.90808 18.1296 8.88305 18.2781 8.88305C18.4983 8.88305 18.6723 8.94063 18.8003 9.05579C18.9334 9.17096 19 9.31116 19 9.47639C19 9.66667 18.9616 9.79685 18.8848 9.86695C18.7415 9.99213 18.5776 10.0547 18.3933 10.0547C18.2858 10.0547 18.1706 10.0322 18.0477 9.98712C17.8071 9.90701 17.6458 9.86695 17.5639 9.86695C17.441 9.86695 17.2951 9.93705 17.1262 10.0773C16.8087 10.3376 16.4299 10.8408 15.9896 11.5869L16.6193 14.1706C16.7166 14.5662 16.7985 14.804 16.8651 14.8841C16.9316 14.9592 16.9982 14.9968 17.0647 14.9968C17.1722 14.9968 17.2977 14.9392 17.441 14.824C17.7226 14.5937 17.9632 14.2933 18.1629 13.9227L18.4317 14.0579C18.1092 14.6488 17.6996 15.1395 17.203 15.53C16.9214 15.7504 16.6833 15.8605 16.4888 15.8605C16.202 15.8605 15.9742 15.7028 15.8053 15.3873C15.6978 15.1921 15.475 14.3509 15.1371 12.8637C14.3385 14.2207 13.6985 15.0944 13.2172 15.485C12.9049 15.7353 12.6029 15.8605 12.311 15.8605C12.1062 15.8605 11.9194 15.7879 11.7504 15.6427C11.6275 15.5325 11.5661 15.3848 11.5661 15.1996C11.5661 15.0343 11.6224 14.8966 11.7351 14.7865C11.8477 14.6763 11.9859 14.6212 12.1498 14.6212C12.3136 14.6212 12.4877 14.7014 12.672 14.8616C12.8051 14.9768 12.9075 15.0343 12.9792 15.0343C13.0406 15.0343 13.1199 14.9943 13.2172 14.9142C13.4579 14.7239 13.7855 14.3133 14.2002 13.6824C14.6149 13.0515 14.8863 12.5959 15.0143 12.3155C14.6968 11.0987 14.5253 10.4553 14.4997 10.3852C14.382 10.0597 14.2284 9.8294 14.0389 9.69421C13.8495 9.55901 13.5705 9.49142 13.2019 9.49142C13.0841 9.49142 12.9484 9.49642 12.7948 9.50644V9.23605L14.8453 8.88305Z" fill="black"/>
<path d="M1.76464 4.13435C1.72154 4.08644 1.68198 4.04148 1.6461 4C1.68198 3.95852 1.72154 3.91356 1.76464 3.86565C2.00574 3.59765 2.35433 3.24073 2.78355 2.88495C3.65617 2.16164 4.79335 1.5 6 1.5C7.20665 1.5 8.34383 2.16164 9.21645 2.88495C9.64567 3.24073 9.99426 3.59765 10.2354 3.86565C10.2785 3.91356 10.318 3.95852 10.3539 4C10.318 4.04148 10.2785 4.08644 10.2354 4.13435C9.99426 4.40235 9.64567 4.75927 9.21645 5.11505C8.34383 5.83836 7.20665 6.5 6 6.5C4.79335 6.5 3.65617 5.83836 2.78355 5.11505C2.35433 4.75927 2.00574 4.40235 1.76464 4.13435Z" stroke="black"/>
<circle cx="6" cy="4" r="1" fill="black"/>
</svg>

<svg xmlns="http://www.w3.org/2000/svg" width="20" height="20" fill="none"><path fill="#000" d="M13.862 5c.39 0 .701.098.937.293.235.19.353.398.353.623a.61.61 0 0 1-.63.624.572.572 0 0 1-.391-.136.425.425 0 0 1-.146-.322c0-.08.034-.178.1-.293.066-.12.1-.201.1-.241 0-.07-.023-.122-.069-.157a.481.481 0 0 0-.292-.076c-.322 0-.612.1-.868.301-.343.266-.65.68-.922 1.246-.138.296-.391 1.03-.76 2.201h1.13l-.14.496h-1.12l-.845 3.282c-.374 1.447-.75 2.566-1.13 3.357-.537 1.117-1.115 1.888-1.734 2.314-.471.325-.943.488-1.414.488a1.18 1.18 0 0 1-.783-.27.593.593 0 0 1-.238-.49c0-.16.066-.3.2-.42a.687.687 0 0 1 .476-.173c.138 0 .256.042.353.127a.39.39 0 0 1 .138.293c0 .11-.054.214-.161.309-.082.07-.123.122-.123.157 0 .045.018.08.054.106.046.035.118.052.215.052.22 0 .453-.068.699-.203.24-.135.456-.338.645-.608.19-.265.368-.65.537-1.156.072-.21.264-.905.576-2.081l1.336-5.085H8.61l.108-.496c.425 0 .721-.028.89-.083.17-.06.323-.17.461-.33.144-.165.328-.47.553-.916.302-.6.592-1.067.868-1.397.38-.446.776-.779 1.19-1 .42-.224.815-.337 1.183-.337Z"/><path fill="#000" d="M18.278 8.883c.22 0 .395.058.523.173a.535.535 0 0 1 .199.42c0 .19-.038.321-.115.391a.726.726 0 0 1-.491.188 1.01 1.01 0 0 1-.346-.068c-.24-.08-.403-.12-.484-.12-.123 0-.27.07-.438.21-.317.26-.697.764-1.137 1.51l.63 2.584c.097.395.18.633.246.713.067.075.133.113.2.113.107 0 .233-.058.376-.173.282-.23.522-.53.722-.901l.269.135a4.727 4.727 0 0 1-1.229 1.472c-.281.22-.52.33-.715.33-.286 0-.513-.157-.682-.472-.108-.196-.331-1.038-.67-2.525-.798 1.357-1.438 2.232-1.92 2.622-.311.25-.614.375-.905.375a.842.842 0 0 1-.561-.217.567.567 0 0 1-.184-.444.57.57 0 0 1 .583-.578c.164 0 .339.08.523.24.133.115.236.173.307.173.062 0 .14-.04.238-.12.24-.19.569-.6.983-1.231.415-.631.687-1.087.815-1.368a79.968 79.968 0 0 0-.515-1.93c-.118-.325-.272-.556-.46-.69-.19-.136-.47-.204-.838-.204-.118 0-.254.006-.407.016v-.27l2.05-.354c.252.26.441.52.57.781.091.18.242.654.452 1.42l.676-.992c.179-.24.397-.468.652-.683.256-.22.482-.37.676-.451a1.07 1.07 0 0 1 .407-.075ZM6 3a1 1 0 1 1 0 2 1 1 0 0 1 0-2Z"/><path fill="#000" d="M6.257 1.009C8.899 1.184 11 4 11 4l-.102.129C10.432 4.703 8.416 7 6 7l-.257-.009C3.101 6.816 1 4 1 4s2.239-3 5-3l.257.009ZM6 2c-1.033 0-2.057.573-2.897 1.27-.308.254-.572.51-.782.73.21.22.474.476.782.73C3.943 5.427 4.967 6 6 6c1.033 0 2.057-.573 2.897-1.27.307-.254.571-.51.78-.73a9.216 9.216 0 0 0-.78-.73C8.057 2.573 7.033 2 6 2Z"/></svg>
